src/assets/icons/sync.svg

<svg width="14" height="14" viewBox="0 0 14 14" fill="none" xmlns="http://www.w3.org/2000/svg">
<g id="sync">
<g clip-path="url(#clip0_154_2627)">
<g id="Vector">
<path d="M12.1334 0.67742C12.1334 0.303484 12.4369 0 12.8109 0C13.1848 0 13.4883 0.303484 13.4883 0.67742V4.50888C13.4883 4.88282 13.1848 5.1863 12.8109 5.1863H8.97938C8.60544 5.1863 8.30196 4.88282 8.30196 4.50888C8.30196 4.13495 8.60544 3.83146 8.97938 3.83146H11.176L10.4164 3.07185C8.39229 1.04681 5.09731 1.04501 3.07138 3.07185C2.50415 3.63998 2.08686 4.30837 1.83035 5.05805C1.73461 5.33985 1.47086 5.51688 1.18905 5.51688C1.11679 5.51688 1.04273 5.50516 0.970467 5.48077C0.615499 5.35884 0.426736 4.97497 0.547769 4.6209C0.872027 3.67342 1.3986 2.82978 2.11305 2.11443C4.66466 -0.438089 8.82041 -0.438992 11.3738 2.11443L12.1334 2.87404V0.67742Z" fill="black"/>
<path d="M12.1695 8.94193C12.2906 8.58786 12.6744 8.39727 13.0294 8.5192C13.3844 8.64114 13.5731 9.02591 13.4521 9.37907C13.1279 10.3266 12.6013 11.1702 11.8868 11.8855C10.6106 13.1618 8.93327 13.8004 7.25598 13.8004C5.57959 13.8004 3.90231 13.1618 2.62605 11.8855L1.86643 11.1259V13.3226C1.86643 13.6965 1.56295 14 1.18901 14C0.815079 14 0.511595 13.6965 0.511595 13.3226V9.49109C0.511595 9.11715 0.815079 8.81367 1.18901 8.81367H5.02051C5.39444 8.81367 5.69793 9.11715 5.69793 9.49109C5.69793 9.86503 5.39444 10.1685 5.02051 10.1685H2.82385L3.58347 10.9281C5.6076 12.9523 8.90257 12.9541 10.9285 10.9281C11.4957 10.36 11.913 9.6916 12.1695 8.94193Z" fill="black"/>
</g>
</g>
</g>
<defs>
<clipPath id="clip0_154_2627">
<rect width="14" height="14" fill="white"/>
</clipPath>
</defs>
</svg>

<svg xmlns="http://www.w3.org/2000/svg" fill="none" viewBox="0 0 14 14"><g fill="#000" clip-path="url(#a)"><path d="M12.133.677a.678.678 0 0 1 1.355 0V4.51a.68.68 0 0 1-.677.677H8.979a.678.678 0 0 1 0-1.355h2.197l-.76-.76A5.198 5.198 0 0 0 1.83 5.059a.677.677 0 0 1-1.282-.437 6.5 6.5 0 0 1 1.565-2.507 6.556 6.556 0 0 1 9.26 0l.76.76zM12.17 8.942a.676.676 0 1 1 1.282.437 6.5 6.5 0 0 1-1.565 2.507A6.53 6.53 0 0 1 7.256 13.8a6.53 6.53 0 0 1-4.63-1.915l-.76-.76v2.198a.678.678 0 0 1-1.354 0V9.49c0-.374.303-.677.677-.677h3.832a.678.678 0 0 1 0 1.354H2.824l.76.76a5.2 5.2 0 0 0 8.586-1.986"/></g><defs><clipPath id="a"><path fill="#fff" d="M0 0h14v14H0z"/></clipPath></defs></svg>
